X: 11655
T: Eileen O'Callaghan's
R: reel
M: 4/4
K: Gmajor
|:G2BG DGBG|GABd cAFA|G2BG DGBc|defd cAFA|
G2BG DGBG|GABd cAFA|GABc dgeg|fdcA AGG2:|
|:dg~g2 bgaf|dggf d2cA|dg~g2 bgag|fdcA GABc|
dg~g2 bgaf|dggf defg|~a3g ~f3e|defd cAFA:|

